X:1010
T:Aunt Hessy's White Horse
T:Aunt Hessie; Aunt Hassie
R:Reel
C:Trad.
O:South Africa
M:4/4
L:1/8
Q:1/4=200
K:G
D2|"G"G2A2 B2c2|ddd2 d2Bc|"D7"ddd2 d2Bc|"G"ddd2 d2D2|
"G"G2A2 B2c2|ddd2 d2Bc|"D7"dd2d cBA2|"G"G4-G2:|
|:"G"z2|"G"gg2f f2=f2|"C"e4 z4|gg2g f2e2|"G"d4z4|
dd2d e2=f2|"D7"f4z4|"D7"dd2d cBA2|"G"G4z2:|
% --------------------------------- B ---------------------------------------

